src/dark/hiso font dark_q.svg

<svg xmlns="http://www.w3.org/2000/svg" width="90" height="126" viewBox="0 0 90 126"><path fill="#000101" d="M39.35 100.68l14.65-7.33v14.65l-14.65-7.32zm32.65-73.68v54l-36 18-36-18v-54l36-18 36 18zm-36 68.65v-50.65l32.65-16.32-32.65-16.33-33 16.5v50.3l33 16.5zm3-31.15v3.35l26.3 13.15 3.351-1.67-29.651-14.83z"/></svg>

<svg xmlns="http://www.w3.org/2000/svg" width="90" height="126"><path fill="#000101" d="M39.35 100.68L54 93.35V108l-14.65-7.32zM72 27v54L36 99 0 81V27L36 9l36 18zM36 95.65V45l32.65-16.32L36 12.35 3 28.85v50.3l33 16.5zm3-31.15v3.35L65.3 81l3.351-1.67L39 64.5z"/></svg>
